X: 85
T: Mort tu as navr\'e / Miserere
N: Derived from Ock3013-Mort_tu_as_navre__Miserere.krn
C: Johannes Ockeghem
%%abc-version 2.0
%%abcx-abcm2ps-target-version 5.9.1 (29 Sep 2008)
%%abc-creator hum2abc beta
%%abcx-conversion-date 2019/02/17 07:26:16
%%abc-edited-by Jesse Rodin
%%abc-edited-by Chris Gage 06-25-2012
%%abcx-initial-encoding-date 2012/06/29/
%%humdrum-veritas 278701313
%%humdrum-veritas-data 3577883450
%%linebreak <none>
%%barnumbers 0
L: 1/4
M: 3/1
Q: 1/2=120
%%staves [1 2 3 4]
V: 1 clef=treble
V: 2 clef=treble-8
V: 3 clef=bass
V: 4 clef=bass
K: F
[V:1] z12 | 
[V:2] e4f6e2 | 
[V:3] A,8A,4- | 
[V:4] A,,4D,8 | 
[V:1] z12 | 
[V:2] d2c2c4=B3A | 
[V:3] A,4G,2E,2F,4 | 
[V:4] F,4E,2C,2D,4 | 
[V:1] z12 | 
[V:2] c2d2e4A2B2 | 
[V:3] G,8F,4- | 
[V:4] C,8D,4 | 
[V:1] z12 | 
[V:2] A2c2B2G3FG2 | 
[V:3] F,2E,2D,6C,2 | 
[V:4] A,,4B,,8 | 
[V:1] C6D2E4 | 
[V:2] A12 | 
[V:3] E,8C,4 | 
[V:4] A,,8A,,4 | 
[V:1] D4G3FE4 | 
[V:2] z4G4c4 | 
[V:3] D,4E,6G,2 | 
[V:4] B,,4C,8 | 
[V:1] D12 | 
[V:2] A4B8 | 
[V:3] F,2E,2G,8 | 
[V:4] D,4G,,8 | 
[V:1] C8A,2=B,2 | 
[V:2] A8z2F2 | 
[V:3] E,4F,8 | 
[V:4] A,,4z4D,4 | 
[V:1] C4C4D4 | 
[V:2] G4A4F4 | 
[V:3] E,8D,4- | 
[V:4] C,4A,,4B,,4 | 
[V:1] B,4A,8 | 
[V:2] G4E8 | 
[V:3] D,4C,8 | 
[V:4] G,,4A,,8 | 
[V:1] z4^F8 | 
[V:2] D4d6c2 | 
[V:3] D,12 | 
[V:4] A,8A,4 | 
[V:1] G4A6G2 | 
[V:2] =B4A6d2- | 
[V:3] E,4F,8 | 
[V:4] G,4D,8 | 
[V:1] B4A2G4^F2 | 
[V:2] d6c2d4 | 
[V:3] G,4F,2G,2A,4 | 
[V:4] z4D,2E,2D,4 | 
[V:1] G6B2A2G2- | 
[V:2] z4d8 | 
[V:3] G,12 | 
[V:4] G,,12- | 
[V:1] G2FED4z2E2 | 
[V:2] d4B8 | 
[V:3] D,4G,8 | 
[V:4] G,,8G,,4 | 
[V:1] F2D2C3DE4 | 
[V:2] A8A4- | 
[V:3] F,4E,4C,4 | 
[V:4] D,4A,,8 | 
[V:1] D2F2G2A2GFED | 
[V:2] A2=B2c3=BGAGF | 
[V:3] D,4C,2A,,2B,,4 | 
[V:4] F,4E,2C,2D,4 | 
[V:1] C2A,2D2D4^C2 | 
[V:2] A12 | 
[V:3] A,,2D,4F,2E,4 | 
[V:4] E,2F,2D,4A,,4 | 
[V:1] D12 :|]  
[V:2] A12 :|]  
[V:3] D,12 :|]  
[V:4] z4A,8 :|]  
[V:1]  [K:F] [K:clef=treble][M:2/1]z8 | 
[V:2]  [K:F] [K:clef=treble-8][M:2/1]A8- | 
[V:3]  [K:F] [K:clef=bass][M:2/1]E,8- | 
[V:4]  [K:F] [K:clef=bass][M:2/1]A,,6B,,2 | 
[V:1] z8 | 
[V:2] A4=B4 | 
[V:3] E,4F,4 | 
[V:4] C,4D,4 | 
[V:1] z8 | 
[V:2] c6=B2 | 
[V:3] G,8 | 
[V:4] E,8 | 
[V:1] z8 | 
[V:2] d8 | 
[V:3] A,8- | 
[V:4] D,8- | 
[V:1] F8 | 
[V:2] z4D4 | 
[V:3] A,8 | 
[V:4] D,8 | 
[V:1] E4C4 | 
[V:2] E4F4 | 
[V:3] A,8 | 
[V:4] A,,8 | 
[V:1] D8 | 
[V:2] (3:2:2G8D4- | 
[V:3] B,8- | 
[V:4] G,,8- | 
[V:1] D8 | 
[V:2] (3:2:2D4G8 | 
[V:3] B,8 | 
[V:4] G,,8 | 
[V:1] C6D2 | 
[V:2] E8- | 
[V:3] A,8 | 
[V:4] A,,8 | 
[V:1] E8 | 
[V:2] E4c4- | 
[V:3] G,8 | 
[V:4] C,8- | 
[V:1] z4E4 | 
[V:2] c8 | 
[V:3] G,8 | 
[V:4] C,8 | 
[V:1] F4D4 | 
[V:2] A8 | 
[V:3] F,8 | 
[V:4] D,8 | 
[V:1] E4C4 | 
[V:2] z8 | 
[V:3] E,4A,4- | 
[V:4] C,4A,,4 | 
[V:1] =B,8 | 
[V:2] z8 | 
[V:3] A,4^G,4 | 
[V:4] E,8 | 
[V:1] A,8 | 
[V:2] c4d4 | 
[V:3] A,8 | 
[V:4] A,,8- | 
[V:1] C8 | 
[V:2] e8 | 
[V:3] z8 | 
[V:4] A,,8 | 
[V:1] F4E4- | 
[V:2] c6=B2 | 
[V:3] A,8 | 
[V:4] z8 | 
[V:1] E2D2D4- | 
[V:2] =B4A4 | 
[V:3] G,4F,4 | 
[V:4] z8 | 
[V:1] D4^C4 | 
[V:2] G2G4F2 | 
[V:3] E,8 | 
[V:4] z8 | 
[V:1] D4A,2=B,2 | 
[V:2] A8- | 
[V:3] D,4F,4- | 
[V:4] D,8 | 
[V:1] D2^C4=B,2 | 
[V:2] A8 | 
[V:3] F,4E,4 | 
[V:4] A,,8 | 
[V:1] D4z4 | 
[V:2] F4G4 | 
[V:3] D,8 | 
[V:4] B,,8 | 
[V:1] C6D2 | 
[V:2] A4A4- | 
[V:3] E,8 | 
[V:4] A,,8 | 
[V:1] E8 | 
[V:2] A2G2E4 | 
[V:3] C,8 | 
[V:4] A,,8 | 
[V:1] F8 | 
[V:2] D4d4- | 
[V:3] D,8 | 
[V:4] A,8 | 
[V:1] D4A4- | 
[V:2] d2c2A4- | 
[V:3] D,8 | 
[V:4] F,8 | 
[V:1] A2G2F4 | 
[V:2] A4d4 | 
[V:3] z8 | 
[V:4] D,8 | 
[V:1] E4D4 | 
[V:2] e4f4 | 
[V:3] z8 | 
[V:4] C,4D,4- | 
[V:1] F4E2D2 | 
[V:2] d4z4 | 
[V:3] z8 | 
[V:4] D,4B,,4 | 
[V:1] C2=B,2A,4 | 
[V:2] e4d2d2 | 
[V:3] z8 | 
[V:4] C,4D,4 | 
[V:1] z8 | 
[V:2] c4=B2c2 | 
[V:3] A,4G,4 | 
[V:4] A,,4z4 | 
[V:1] z8 | 
[V:2] d4e4 | 
[V:3] F,4E,4 | 
[V:4] D,4C,4 | 
[V:1] z8 | 
[V:2] d4c2e2- | 
[V:3] G,4A,4 | 
[V:4] B,,4A,,4 | 
[V:1] z8 | 
[V:2] edf2d4- | 
[V:3] A,8 | 
[V:4] C,4D,4 | 
[V:1] F6ED | 
[V:2] d2c2=B2A2 | 
[V:3] z4F,4 | 
[V:4] D,4z4 | 
[V:1] C6D2- | 
[V:2] A4z4 | 
[V:3] E,4F,2G,2- | 
[V:4] A,,6G,,2- | 
[V:1] D4C4 | 
[V:2] B4A4 | 
[V:3] G,2F,2E,4 | 
[V:4] G,,4A,,4 | 
[V:1] D3C/=B,/C2E2 | 
[V:2] G4A4 | 
[V:3] D,4E,4 | 
[V:4] B,,4A,,4 | 
[V:1] D8 | 
[V:2] B8 | 
[V:3] F,8 | 
[V:4] D,8 | 
[V:1] ^C8 | 
[V:2] A8 | 
[V:3] E,8 | 
[V:4] A,,8 | 
[V:1] D8 |]  
[V:2] A8 |]  
[V:3] D,8 |]  
[V:4] D,8 |]  



